X:190
T:Pipe on the Hob (1)
R:jig
H:There is another tune by the same name, #29
D:Bothy Band: Out of the Wind, into the Sun
Z:id:hn-jig-185
M:6/8
L:1/8
K:Ador
B|c2c edc|edc BAG|A2A gfg|eaf ged|!
c2c edc|edc deg|age dBe|A2A A2:||!
f|g2g geg|age dcB|A2A gfg|eaf gef|!
g2g gea|age deg|age dBe|A2A A2:||!
B|c2c dcd|ecA AGE|cBc dcd|ecA A2B|!
cBc dcd|ede gab|age dBe|A2A A2:||
T:Hag at the Churn, The
R:jig
D:Bothy Band: Out of the Wind, into the Sun
Z:id:hn-jig-102
M:6/8
L:1/8
K:Dmix
A2G ADD|A2G Adc|A2G ADD|EFG EFG:||!
AdB c3|Add efg|AdB c2E|EDE GED|!
AdB c3|Add efg|fge dcA|GEF GED|]
